X:1
T:The Cheviot Rant
M:4/4
L:1/8
R:reel
K:Dmaj
|: FG | AdBd A2de | fgef d2ef | gBed cded | c2A2 A2de |
fdgf e2cd | ecfe d2Bc | dBed cAag | f2d2 d2 ::
FG | AFAd fdAF | G2B2 B2ef | gfge cBAG | B2A2 A2FG |
Adfe dcBA | GBed cBAG | FAdf geag | f2d2 d2 :|
